public/topics/32.svg

<svg width="250" height="250" viewBox="0 0 250 250" fill="none" xmlns="http://www.w3.org/2000/svg">
<rect width="250" height="250" rx="30" fill="#339900"/>
<path d="M81 115C91.9333 117.4 101 122.133 108.2 129.2C115.4 136.267 119 144.467 119 153.8C119 159.4 117.667 164.867 115 170.2C110.733 178.733 104.333 185.133 95.8 189.4C87.4 193.667 77.6667 195.8 66.6 195.8C59.6667 195.8 53.4667 194.533 48 192C42.5333 189.333 37.1333 185.8 31.8 181.4C29.8 179.533 28 176.867 26.4 173.4C24.9333 169.933 24.2 167.067 24.2 164.8C24.2 161.867 25 159.533 26.6 157.8C28.3333 155.933 30.6 155 33.4 155C36.2 155 38.4 155.667 40 157C41.6 158.333 43.5333 160.467 45.8 163.4C47.9333 166.2 49.8667 168.467 51.6 170.2C53.3333 171.8 55.6667 173.2 58.6 174.4C61.5333 175.6 65.2 176.2 69.6 176.2C78.5333 176.2 85.5333 174 90.6 169.6C95.6667 165.2 98.2 159 98.2 151C98.2 147.933 96.5333 144.867 93.2 141.8C89.8667 138.6 86.7333 136.333 83.8 135C82.0667 134.067 78.8667 133.133 74.2 132.2C67.9333 130.6 63.2 129.067 60 127.6C56.9333 126 55.4 123.533 55.4 120.2C55.4 117.933 56.4 115.733 58.4 113.6C60.4 111.333 63.4 108.533 67.4 105.2C71.4 101.867 74.4 99.1333 76.4 97C78.4 94.7333 79.4 92.4667 79.4 90.2C76.8667 89.5333 73.0667 89.2 68 89.2C65.7333 89.2 62.3333 89.3333 57.8 89.6C53.8 89.8667 50.7333 90 48.6 90C43.8 90 39.6667 89.2 36.2 87.6C32.8667 86 31.2 83.9333 31.2 81.4C31.2 78.6 31.4667 76.4 32 74.8C32.5333 73.0667 33.5333 72 35 71.6C35.9333 71.2 37.6 71 40 71C46.5333 71 52.2 71.2 57 71.6C62.3333 71.8667 66.4 72 69.2 72L85.8 71.8C99.4 71.8 106.2 75.0667 106.2 81.6C106.2 86.5333 103.667 92.1333 98.6 98.4C93.6667 104.533 87.8 110.067 81 115ZM165.184 174.2C169.718 174.467 172.718 174.6 174.184 174.6C178.718 174.6 182.718 174.533 186.184 174.4C189.784 174.267 192.851 174.133 195.384 174C201.918 173.6 207.784 173.4 212.984 173.4C218.051 173.4 221.784 174.733 224.184 177.4C226.584 180.067 227.784 183.6 227.784 188C227.784 190.133 226.384 191.867 223.584 193.2C220.784 194.4 217.918 195 214.984 195C212.451 195 207.184 194.733 199.184 194.2C189.584 193.4 182.051 193 176.584 193C173.651 193 170.184 193.2 166.184 193.6C164.584 193.733 162.651 193.867 160.384 194C158.118 194.133 155.584 194.2 152.784 194.2C147.451 194.2 143.384 193.467 140.584 192C137.784 190.533 136.384 187.867 136.384 184C136.384 180.667 137.718 177.267 140.384 173.8C143.051 170.333 146.784 166.2 151.584 161.4L156.384 156.6C158.518 154.333 162.451 150.467 168.184 145C177.651 136.467 184.984 128.933 190.184 122.4C195.518 115.867 198.184 109.4 198.184 103C198.184 98.8667 196.184 95.5333 192.184 93C188.318 90.3333 183.851 89 178.784 89C171.051 89 165.451 90.7333 161.984 94.2C158.651 97.5333 156.984 102.4 156.984 108.8C156.984 110.4 156.051 111.867 154.184 113.2C152.451 114.4 150.251 115 147.584 115C143.851 115 141.251 113.667 139.784 111C138.318 108.333 137.584 105.067 137.584 101.2C137.584 95.0667 139.451 89.6667 143.184 85C146.918 80.2 151.984 76.4667 158.384 73.8C164.918 71.1333 172.118 69.8 179.984 69.8C185.584 69.8 191.384 71.2 197.384 74C203.518 76.6667 208.584 80.3333 212.584 85C216.718 89.5333 218.784 94.5333 218.784 100C218.784 108.267 216.718 116.133 212.584 123.6C208.451 131.067 203.584 137.733 197.984 143.6C192.518 149.333 185.384 156.133 176.584 164C172.318 167.6 168.518 171 165.184 174.2Z" fill="white"/>
</svg>

<svg xmlns="http://www.w3.org/2000/svg" width="250" height="250" fill="none" viewBox="0 0 250 250"><rect width="250" height="250" fill="#390" rx="30"/><path fill="#fff" d="M81 115q16.4 3.6 27.2 14.2t10.8 24.6q0 8.4-4 16.4-6.4 12.8-19.2 19.2-12.6 6.4-29.2 6.4-10.4 0-18.6-3.8-8.2-4-16.2-10.6-3-2.8-5.4-8-2.2-5.2-2.2-8.6 0-4.4 2.4-7 2.6-2.8 6.8-2.8t6.6 2 5.8 6.4q3.2 4.2 5.8 6.8 2.6 2.4 7 4.2t11 1.8q13.4 0 21-6.6t7.6-18.6q0-4.6-5-9.2-5-4.8-9.4-6.8-2.6-1.4-9.6-2.8-9.4-2.4-14.2-4.6-4.6-2.4-4.6-7.4 0-3.4 3-6.6 3-3.4 9-8.4t9-8.2q3-3.4 3-6.8-3.8-1-11.4-1-3.4 0-10.2.4-6 .4-9.2.4-7.2 0-12.4-2.4-5-2.4-5-6.2 0-4.2.8-6.6.8-2.6 3-3.2 1.4-.6 5-.6 9.8 0 17 .6 8 .4 12.2.4l16.6-.2q20.4 0 20.4 9.8 0 7.4-7.6 16.8-7.4 9.2-17.6 16.6m84.184 59.2q6.801.4 9 .4 6.801 0 12-.2 5.4-.2 9.2-.4 9.8-.6 17.6-.6 7.6 0 11.2 4t3.6 10.6q0 3.2-4.2 5.2-4.2 1.8-8.6 1.8-3.8 0-15.8-.8-14.4-1.2-22.6-1.2-4.4 0-10.4.6-2.4.2-5.8.4t-7.6.2q-8 0-12.2-2.2t-4.2-8q0-5 4-10.2t11.2-12.4l4.8-4.8q3.2-3.4 11.8-11.6 14.2-12.8 22-22.6 8-9.8 8-19.4 0-6.2-6-10-5.8-4-13.4-4-11.6 0-16.8 5.2-5 5-5 14.6 0 2.4-2.8 4.4-2.6 1.8-6.6 1.8-5.6 0-7.8-4t-2.2-9.8q0-9.2 5.6-16.2 5.6-7.2 15.2-11.2 9.801-4 21.6-4 8.4 0 17.4 4.2 9.2 4 15.2 11 6.2 6.8 6.2 15 0 12.4-6.2 23.6t-14.6 20q-8.2 8.6-21.4 20.4-6.399 5.4-11.4 10.2"/></svg>
